X:327
T: Der Mord im Walde (4-28), S. 40
N: P0589
O: Lothringen
S: PINCK, Louis: Verklingende Weisen Bd 4, Kassel 1939]
R: Liebeslied, Standesunterschied, Mord]
M: none
L: 1/8
K: G
D2D2G2 | G6B2B2A2 | B4z2
GB | c2B2BAG2 | F4G2
D2D2G2 | G6B2B2A2 | B4z2
BA | B4z2BG | B4z2Bd | d3cB2A4
GB | c2B2BAG2 | F4G2
BA | G4G2G4B2 | BAA2B2z4
GB | c2B2BAG2 | F4G2

@@@ Tune index: 7877
